Papirus/24x24/apps/livewallpaper-config.svg

<svg xmlns="http://www.w3.org/2000/svg" width="24" height="24" version="1">
 <rect style="fill:#8e8e8e" width="16" height="12" x="-21" y="-18" rx="1" ry="1" transform="matrix(0,-1,-1,0,0,0)"/>
 <rect style="fill:#8e8e8e" width="16" height="20" x="-19" y="-22" rx="1" ry="1" transform="matrix(0,-1,-1,0,0,0)"/>
 <rect style="fill:#1d83af" width="14" height="18" x="-18" y="-21" rx="0" ry="0" transform="matrix(0,-1,-1,0,0,0)"/>
 <path style="opacity:0.2;fill:#ffffff" d="M 3,3 C 2.446,3 2,3.446 2,4 l 0,0.5 c 0,-0.554 0.446,-1 1,-1 l 18,0 c 0.554,0 1,0.446 1,1 L 22,4 C 22,3.446 21.554,3 21,3 L 3,3 Z"/>
 <path style="opacity:0.2" d="m 6,20 0,0.5 c 0,0.554 0.446,1 1,1 l 10,0 c 0.554,0 1,-0.446 1,-1 L 18,20 c 0,0.554 -0.446,1 -1,1 L 7,21 C 6.446,21 6,20.554 6,20 Z"/>
 <path style="opacity:0.2" d="m 2,18 0,0.5 c 0,0.554 0.446,1 1,1 l 18,0 c 0.554,0 1,-0.446 1,-1 L 22,18 c 0,0.554 -0.446,1 -1,1 L 3,19 C 2.446,19 2,18.554 2,18 Z"/>
 <path style="opacity:0.2" d="M 16.5,5.5 A 2.5,2.5 0 0 0 14,8 2.5,2.5 0 0 0 16.5,10.5 2.5,2.5 0 0 0 19,8 2.5,2.5 0 0 0 16.5,5.5 Z m -5.5,2 a 1,1 0 0 0 -1,1 1,1 0 0 0 1,1 1,1 0 0 0 1,-1 1,1 0 0 0 -1,-1 z m -4,2 a 2,2 0 0 0 -2,2 2,2 0 0 0 2,2 2,2 0 0 0 2,-2 2,2 0 0 0 -2,-2 z m 11,3 a 1,1 0 0 0 -1,1 1,1 0 0 0 1,1 1,1 0 0 0 1,-1 1,1 0 0 0 -1,-1 z m -4.5,1 A 1.5,1.5 0 0 0 12,15 1.5,1.5 0 0 0 13.5,16.5 1.5,1.5 0 0 0 15,15 1.5,1.5 0 0 0 13.5,13.5 Z"/>
 <circle style="fill:#f0f9fd" cx="16.5" cy="7.5" r="2.5"/>
 <circle style="fill:#c4e7f5" cx="7" cy="11" r="2"/>
 <circle style="fill:#a6daf0" cx="13.5" cy="14.5" r="1.5"/>
 <circle style="fill:#c4e7f5" cx="11" cy="8" r="1"/>
 <circle style="fill:#d3edf8" cx="18" cy="13" r="1"/>
 <circle style="fill:#c149c0" cx="18" cy="18" r="5"/>
 <path style="fill:#ffffff" d="m 17.223,15 -0.06613,0.7902 a 2.3572,2.3572 0 0 0 -0.6889,0.39844 l -0.7182,-0.33818 -0.75,1.2991 0.65205,0.45285 a 2.3572,2.3572 0 0 0 -0.036,0.3976 2.3572,2.3572 0 0 0 0.0343,0.39928 l -0.6505,0.4515 0.75,1.2991 0.7165,-0.33733 a 2.3572,2.3572 0 0 0 0.69055,0.39592 l 0.06613,0.79185 1.5,0 0.06612,-0.7902 a 2.3572,2.3572 0 0 0 0.6889,-0.39844 l 0.7182,0.33817 0.75,-1.2991 -0.65205,-0.45285 a 2.3572,2.3572 0 0 0 0.036,-0.3976 2.3572,2.3572 0 0 0 -0.0343,-0.39928 l 0.6504,-0.45118 -0.75,-1.2991 -0.7165,0.33734 a 2.3572,2.3572 0 0 0 -0.6905,-0.395 l -0.06612,-0.79185 -1.5,0 z m 0.75,2.1428 a 0.85715,0.85715 0 0 1 0.857,0.857 0.85715,0.85715 0 0 1 -0.857,0.857 0.85715,0.85715 0 0 1 -0.857,-0.857 0.85715,0.85715 0 0 1 0.857,-0.857 z"/>
</svg>

<svg xmlns="http://www.w3.org/2000/svg" width="24" height="24" version="1">
 <rect style="opacity:0.2" width="16" height="12" x="-21.5" y="-18" rx="1" ry="1" transform="matrix(0,-1,-1,0,0,0)"/>
 <rect style="fill:#8e8e8e" width="16" height="12" x="-21" y="-18" rx="1" ry="1" transform="matrix(0,-1,-1,0,0,0)"/>
 <rect style="opacity:0.2" width="16" height="20" x="-19.5" y="-22" rx="1" ry="1" transform="matrix(0,-1,-1,0,0,0)"/>
 <rect style="fill:#4f4f4f" width="16" height="20" x="-19" y="-22" rx="1" ry="1" transform="matrix(0,-1,-1,0,0,0)"/>
 <path style="opacity:0.1;fill:#ffffff" d="M 3,3 C 2.446,3 2,3.446 2,4 V 4.5 C 2,3.946 2.446,3.5 3,3.5 H 21 C 21.554,3.5 22,3.946 22,4.5 V 4 C 22,3.446 21.554,3 21,3 Z"/>
 <rect style="fill:#1d83af" width="14" height="18" x="-18" y="-21" rx="0" ry="0" transform="matrix(0,-1,-1,0,0,0)"/>
 <path style="opacity:0.2" d="M 16.5,5.5 A 2.5,2.5 0 0 0 14,8 2.5,2.5 0 0 0 16.5,10.5 2.5,2.5 0 0 0 19,8 2.5,2.5 0 0 0 16.5,5.5 Z m -5.5,2 a 1,1 0 0 0 -1,1 1,1 0 0 0 1,1 1,1 0 0 0 1,-1 1,1 0 0 0 -1,-1 z m -4,2 a 2,2 0 0 0 -2,2 2,2 0 0 0 2,2 2,2 0 0 0 2,-2 2,2 0 0 0 -2,-2 z m 11,3 a 1,1 0 0 0 -1,1 1,1 0 0 0 1,1 1,1 0 0 0 1,-1 1,1 0 0 0 -1,-1 z m -4.5,1 A 1.5,1.5 0 0 0 12,15 1.5,1.5 0 0 0 13.5,16.5 1.5,1.5 0 0 0 15,15 1.5,1.5 0 0 0 13.5,13.5 Z"/>
 <circle style="fill:#f0f9fd" cx="16.5" cy="7.5" r="2.5"/>
 <circle style="fill:#c4e7f5" cx="7" cy="11" r="2"/>
 <circle style="fill:#a6daf0" cx="13.5" cy="14.5" r="1.5"/>
 <circle style="fill:#c4e7f5" cx="11" cy="8" r="1"/>
 <circle style="fill:#d3edf8" cx="18" cy="13" r="1"/>
 <circle style="fill:#c149c0" cx="18" cy="18" r="5"/>
 <path style="fill:#ffffff" d="M 17.223,15 17.157,15.79 A 2.3572,2.3572 0 0 0 16.468,16.189 L 15.75,15.85 15,17.15 15.652,17.602 A 2.3572,2.3572 0 0 0 15.616,18 2.3572,2.3572 0 0 0 15.65,18.399 L 15,18.851 15.75,20.15 16.466,19.813 A 2.3572,2.3572 0 0 0 17.157,20.208 L 17.223,21 H 18.723 L 18.789,20.21 A 2.3572,2.3572 0 0 0 19.478,19.812 L 20.196,20.15 20.946,18.851 20.294,18.398 A 2.3572,2.3572 0 0 0 20.33,18 2.3572,2.3572 0 0 0 20.296,17.601 L 20.946,17.15 20.196,15.851 19.48,16.188 A 2.3572,2.3572 0 0 0 18.789,15.793 L 18.723,15.001 H 17.223 Z M 17.973,17.143 A 0.85715,0.85715 0 0 1 18.83,18 0.85715,0.85715 0 0 1 17.973,18.857 0.85715,0.85715 0 0 1 17.116,18 0.85715,0.85715 0 0 1 17.973,17.143 Z"/>
</svg>
